X:1
T:Lungi dal mio
T:Lungi dal mio
T:Enrico Radesca di Foggia
T:Source : Canzonette, madrigale & arie---Libro I---Milano---Heredes S.Tini et F.Lomazzi---1606. Editor : André Vierendeels (13/04/14). 
C:Enroco Radesca di Foggia
%%score [ 1 2 ] 3
L:1/8
Q:1/4=100
M:4/4
K:F
V:1 treble nm="Soprano" snm="S"
V:2 bass nm="Bass" snm="B"
V:3 bass nm="MusicXML Part"
V:1
 A3 B c4- | c4 F2 G2 | G2 F2 G4 | G4 c4 | B4 A4 | G2 c2 B2 A2 | G2 F2 G4 | G4 C4 | D2 E2 F2 G2 | %9
w: Lun- * *|* gi dal|mio bel So-|le, un|tal- mar-|tir, un tal mar-|tir m'as- sa-|le, ch'il|la- cri- mar non|
w: Hor _ _|_ qual fia|la mia vi-|ta, s'in|van pian-|go'e so- spi- ro,-|s'in van pian-|go'e so-|spi- * * ro'e|
w: E _ _|_ ch'i m'a-|vra pie- ta-|de, se'l|mio vi-|vo re- so- ro,|re- * so-|ro sa|che mi spa- smo'e|
 G8 |[M:2/4] F4 :: A4 |[M:4/4] d3 d d2 c2 | A2 B2 B2 c2 | c8 | B4 d4- | d2 A2 c4- | c2 FG G4 | %18
w: va-|le,|ne|co- sa veg- gio|mai che mi con-|so-|le, an-|* zi quan-|* to mi do-|
w: mi-|ro,|e|pian- ger sem- pre'a|la- cri- mar m'in-|vi-|ta: ahi|_ ch'è stu-|* por ch'io vi-|
w: mo-|ro,-|e|m'è tan- to cru-|del, quan- to'ha bel-|ta-|de: e|_ quel che|_ mi par peg-|
 G2 c2 B2 A2 | G2 F2 G2 c2 | F2 G2 G2 F2 | G8 | F8 :| %23
w: glio, tan- to cre-|sce nel cor l'a-|pro cor- do- *||glio.|
w: va, hor ch'a tor-|to'il mio Sol de|se mi pri- *||va.|
w: gio, sa'il mio ma-|le,- e no'l cre-|de, et io me'l|veg-|gio.|
V:2
 F,8 | A,,6 B,,2 | C,2 D,2 C,4 | C,4 A,,4 | B,,4 B,,4 | C,2 C,2 D,2 D,2 | E,2 F,2 C,4 | C,4 A,,4 | %8
w: Lun-|gi dal|mio bel So-|le, un|tal mar-|tir, un tal mar-|tir m'as- sa-|le, ch'il|
w: Hor|qual fia|la mia vi-|ta, s'in|van pian-|go'e so- spi- ro,|s'in van pian-|go'e so-|
w: E|ch'i m'a-|vra pie- ta-|de, se'l|mio vi-|vo re- so- ro,|re- * so-|ro sa|
 B,,2 C,2 D,2 B,,2 | C,8 |[M:2/4] F,,4 :: F,4 |[M:4/4] B,,3 B,, B,,2 C,2 | D,2 D,2 _E,2 E,2 | F,8 | %15
w: la- cri- mar non|va-|le,|ne|co- sa veg- gio|mai che mi con-|so-|
w: spi- * * ro'e|mi-|ro,|e|pian- ger sem- pre'a|la- cri- mar m'in-|vi-|
w: che mi spa- smo'e|mo-|ro,|e|m'è tan- to cru-|del, quan- to'ha bel-|ta-|
 B,,8 | F,6 F,,2 | A,,2 A,,B,, C,4 | C,4 z2 F,2 | _E,2 D,2 C,2 A,,2 | B,,2 B,,2 C,2 D,2 | C,8 | %22
w: le,|an- zi|quan- to mi do-|glio, tan-|to cre- sce nel|l'a- pro cor- *|do-|
w: ta:|ahi ch'è|stu- por ch'io vi-|va, hor|ch'a tor- to'il mio|Sol de se mi|pri-|
w: de:|e quel|che mi par peg-|gio, sa'il|mio ma- l'e- no'l|cre- d'et io me'l|veg-|
 F,,8 :| %23
w: glio.|
w: va.|
w: gio.|
V:3
 F,8 | A,,6 B,,2 | C,2 D,2 C,4 | C,4 A,,4 | B,,8 | C,4 D,4 | E,2 F,2 C,4 | C,4 A,,4 | %8
 B,,2 C,2 D,2 B,,2 | C,8 |[M:2/4] F,,4 :: F,4 |[M:4/4] B,,6 C,2 | D,2 B,,2 _E,4 | F,8 | B,,4 B,4 | %16
 A,2 F,2 F,,4 | A,,3 B,, C,4 | C,2 C,2 B,,2 F,2 | _E,2 D,2 C,2 A,,2 | B,,2 G,,2 C,2 D,2 | C,8 | %22
 F,,8 :| %23

